X: 10219
T: Disused Railway, The
R: slip jig
M: 9/8
K: Bminor
B2 c dcB fdB|B2d cBA ecA|B2 c dcB fdB|B2 d cBA B3:|
d2 e fed afd|d2 f ecA ecA|d2 e fed afd|fbb b2 ^a b3|
a2 g fed def|e2 d cBA ABc|B2c dcB fdB|B2 d cBA B3||

